blockchains/ethereum/assets/0x5228a22e72ccC52d415EcFd199F99D0665E7733b/logo.svg

<svg width="250" height="250" viewBox="0 0 250 250" fill="none" xmlns="http://www.w3.org/2000/svg">
<path d="M247.75 125.051C247.75 158.951 233.95 189.651 211.7 211.851C189.55 233.901 159 247.501 125.25 247.501C91.5 247.501 60.95 233.851 38.8 211.801C16.55 189.601 2.75 158.901 2.75 125.051C2.75 57.4009 57.6 2.55092 125.25 2.55092C192.95 2.45092 247.75 57.3009 247.75 125.051Z" fill="#FF6766"/>
<path d="M247.75 125.049C247.75 192.699 192.9 247.549 125.25 247.549C91.45 247.549 60.9 233.899 38.75 211.799L212 38.4492C234.05 60.5992 247.75 91.1992 247.75 125.049Z" fill="#D95E59"/>
<path d="M211.75 211.848C189.6 233.898 159.05 247.498 125.3 247.498C91.5501 247.498 61.0001 233.898 38.8501 211.848C61.0001 189.798 91.5501 176.148 125.3 176.148C159.05 176.148 189.5 189.748 211.75 211.848Z" fill="#FEF4C8"/>
<path d="M203.5 125C203.5 146.65 194.7 166.25 180.5 180.45C166.35 194.55 146.85 203.25 125.3 203.25C103.75 203.25 84.25 194.55 70.1 180.45C55.8 166.3 47 146.7 47 125C47 81.8 82.05 46.75 125.25 46.75C168.45 46.75 203.5 81.8 203.5 125Z" fill="#F5F7E2"/>
<path d="M186.3 125C186.3 141.9 179.45 157.2 168.35 168.25C157.3 179.25 142.1 186.05 125.3 186.05C108.5 186.05 93.25 179.25 82.25 168.25C71.15 157.2 64.25 141.9 64.25 125C64.25 91.3 91.55 64 125.25 64C158.95 64 186.3 91.3 186.3 125Z" fill="white"/>
<path d="M65.9999 89.4998C68.1499 86.4498 70.1999 83.3498 72.6499 80.4998C77.0999 75.3498 82.1499 70.8998 87.8999 67.2498C93.0999 63.9498 98.5499 61.3498 104.4 59.5498C113.5 56.7498 122.8 55.8998 132.25 56.9498C139.15 57.7498 145.85 59.4998 152.15 62.3498C156 64.0998 159.6 66.1998 163.15 68.5498C170.3 73.1998 176 79.2498 180.8 86.1998C185.9 93.5998 189.2 101.8 191.05 110.65C192.35 116.85 192.85 123.1 192.3 129.4C191.6 137.15 189.9 144.65 186.7 151.8C184 157.9 180.6 163.45 176.3 168.5C172.1 173.45 167.35 177.75 161.9 181.3C158.2 183.7 154.3 185.9 150.25 187.5C143.4 190.2 136.3 192 128.9 192.3C123.7 192.5 118.5 192.45 113.35 191.5C108.9 190.7 104.6 189.55 100.35 188C96.2499 186.45 92.2499 184.65 88.5999 182.35C83.2999 179 78.5499 175 74.2999 170.35C69.5999 165.15 65.7499 159.4 62.7999 153.05C58.6499 144.1 56.5999 134.65 56.4999 124.75C56.4499 121.05 56.8999 117.35 57.3499 113.7C57.3999 113.45 57.3499 113.15 57.3499 112.9C57.7999 112.65 57.7499 112.15 57.7999 111.75C58.8999 106 60.7499 100.45 63.2499 95.1498C64.1999 93.2498 65.3999 91.4998 65.9999 89.4998ZM145.4 125.95C147.25 124.95 149 124.4 150.35 123.2C155.7 118.45 157.1 107.25 148.45 101.85C145.75 100.15 142.9 98.8998 139.8 97.6498C140.3 93.4998 141.95 89.5998 142.5 85.3498C139.95 84.6998 137.55 83.8998 135.05 83.5998C134.05 87.5998 133.05 91.3998 132.05 95.3998C130.15 94.7998 128.15 94.8498 126.4 93.8498C127.05 89.7998 128.6 85.9998 129 81.9498C126.35 81.5498 124.15 80.4998 121.6 80.3998C120.6 84.3998 119.65 88.2998 118.6 92.2998C113.55 91.5498 108.9 89.7998 103.8 88.8498C102.7 91.3498 102.2 93.9998 101.75 96.8498C103.4 97.2498 104.85 97.5998 106.3 97.8998C109.95 98.7498 110.95 100.75 110.1 103.95C109.5 106.2 108.95 108.5 108.35 110.8C106.3 119 104.3 127.25 102.25 135.45C101.8 137.3 100.65 137.9 98.7499 137.65C96.8999 137.4 95.1499 136.55 93.0999 136.6C92.1999 139.45 90.4499 141.9 89.8499 145.05C94.6999 146.3 99.3999 147.5 104.3 148.75C103.95 153.05 102.15 156.95 101.65 161.25C104.1 161.85 106.45 162.4 108.85 162.95C110.45 159 110.8 154.85 112.3 150.75C114.1 151.65 116.05 151.4 117.8 152.55C116.85 156.5 115.9 160.4 114.95 164.4C117.5 165.3 119.95 165.7 122.5 166.3C123.55 162.2 124.5 158.2 125.5 154.35C126.1 154.05 126.55 154.1 126.95 154.2C130.95 155.05 134.95 155.25 138.95 154.8C142.45 154.4 145.55 153.1 148 150.45C150.75 147.55 152.15 144 152.8 140.15C153.35 137.05 153.2 133.85 151.35 131.1C149.9 128.95 147.95 127.3 145.4 125.95ZM116.65 142.2C121.55 143.4 126.45 144.7 131.6 143.8C134.35 143.3 136.4 141.9 137.25 139.15C138.05 136.55 137.6 134.2 135.65 132.15C133.65 130 131.05 128.9 128.4 128C125.25 126.9 122 125.9 118.55 125.6C117.2 131 115.95 136.25 114.6 141.6C115.4 141.8 116 142.05 116.65 142.2ZM133.95 119.55C136.65 119.15 138.9 117.35 139.55 114.95C140.35 111.95 139.45 109.35 137.05 107.6C134.3 105.6 131.15 104.55 127.9 103.85C126.7 103.6 125.5 102.9 124.05 103.35C122.9 108.1 121.7 112.85 120.5 117.8C125.15 118.9 129.4 120.2 133.95 119.55Z" fill="#F39321"/>
</svg>

<svg fill="none" height="250" viewBox="0 0 250 250" width="250" xmlns="http://www.w3.org/2000/svg"><path d="m247.75 125.051c0 33.9-13.8 64.6-36.05 86.8-22.15 22.05-52.7 35.65-86.45 35.65s-64.3-13.65-86.45-35.7c-22.25-22.2-36.05-52.9-36.05-86.75 0-67.6501 54.85-122.50008 122.5-122.50008 67.7-.1 122.5 54.74998 122.5 122.50008z" fill="#ff6766"/><path d="m247.75 125.049c0 67.65-54.85 122.5-122.5 122.5-33.8 0-64.35-13.65-86.5-35.75l173.25-173.3498c22.05 22.15 35.75 52.75 35.75 86.5998z" fill="#d95e59"/><path d="m211.75 211.848c-22.15 22.05-52.7 35.65-86.45 35.65-33.7499 0-64.2999-13.6-86.4499-35.65 22.15-22.05 52.7-35.7 86.4499-35.7 33.75 0 64.2 13.6 86.45 35.7z" fill="#fef4c8"/><path d="m203.5 125c0 21.65-8.8 41.25-23 55.45-14.15 14.1-33.65 22.8-55.2 22.8s-41.05-8.7-55.2-22.8c-14.3-14.15-23.1-33.75-23.1-55.45 0-43.2 35.05-78.25 78.25-78.25s78.25 35.05 78.25 78.25z" fill="#f5f7e2"/><path d="m186.3 125c0 16.9-6.85 32.2-17.95 43.25-11.05 11-26.25 17.8-43.05 17.8s-32.05-6.8-43.05-17.8c-11.1-11.05-18-26.35-18-43.25 0-33.7 27.3-61 61-61s61.05 27.3 61.05 61z" fill="#fff"/><path d="m65.9999 89.4998c2.15-3.05 4.2-6.15 6.65-9 4.45-5.15 9.5-9.6 15.25-13.25 5.2-3.3 10.65-5.9 16.5001-7.7 9.1-2.8 18.4-3.65 27.85-2.6 6.9.8 13.6 2.55 19.9 5.4 3.85 1.75 7.45 3.85 11 6.2 7.15 4.65 12.85 10.7 17.65 17.65 5.1 7.4 8.4 15.6002 10.25 24.4502 1.3 6.2 1.8 12.45 1.25 18.75-.7 7.75-2.4 15.25-5.6 22.4-2.7 6.1-6.1 11.65-10.4 16.7-4.2 4.95-8.95 9.25-14.4 12.8-3.7 2.4-7.6 4.6-11.65 6.2-6.85 2.7-13.95 4.5-21.35 4.8-5.2.2-10.4.15-15.55-.8-4.45-.8-8.75-1.95-13-3.5-4.1001-1.55-8.1001-3.35-11.7501-5.65-5.3-3.35-10.05-7.35-14.3-12-4.7-5.2-8.55-10.95-11.5-17.3-4.15-8.95-6.2-18.4-6.3-28.3-.05-3.7.4-7.4.85-11.05.05-.25 0-.55 0-.8.45-.25.4-.75.45-1.15 1.1-5.75 2.95-11.3 5.45-16.6002.95-1.9 2.15-3.65 2.75-5.65zm79.4001 36.4502c1.85-1 3.6-1.55 4.95-2.75 5.35-4.75 6.75-15.95-1.9-21.35-2.7-1.7-5.55-2.9502-8.65-4.2002.5-4.15 2.15-8.05 2.7-12.3-2.55-.65-4.95-1.45-7.45-1.75-1 4-2 7.8-3 11.8-1.9-.6-3.9-.55-5.65-1.55.65-4.05 2.2-7.85 2.6-11.9-2.65-.4-4.85-1.45-7.4-1.55-1 4-1.95 7.9-3 11.9-5.05-.75-9.7-2.5-14.8-3.45-1.1 2.5-1.6 5.15-2.05 8 1.65.4 3.1.75 4.55 1.05 3.65.85 4.65 2.8502 3.8 6.0502-.6 2.25-1.15 4.55-1.75 6.85-2.05 8.2-4.05 16.45-6.1 24.65-.45 1.85-1.6 2.45-3.5001 2.2-1.85-.25-3.6-1.1-5.65-1.05-.9 2.85-2.65 5.3-3.25 8.45 4.85 1.25 9.55 2.45 14.4501 3.7-.35 4.3-2.15 8.2-2.65 12.5 2.45.6 4.8 1.15 7.2 1.7 1.6-3.95 1.95-8.1 3.45-12.2 1.8.9 3.75.65 5.5 1.8-.95 3.95-1.9 7.85-2.85 11.85 2.55.9 5 1.3 7.55 1.9 1.05-4.1 2-8.1 3-11.95.6-.3 1.05-.25 1.45-.15 4 .85 8 1.05 12 .6 3.5-.4 6.6-1.7 9.05-4.35 2.75-2.9 4.15-6.45 4.8-10.3.55-3.1.4-6.3-1.45-9.05-1.45-2.15-3.4-3.8-5.95-5.15zm-28.75 16.25c4.9 1.2 9.8 2.5 14.95 1.6 2.75-.5 4.8-1.9 5.65-4.65.8-2.6.35-4.95-1.6-7-2-2.15-4.6-3.25-7.25-4.15-3.15-1.1-6.4-2.1-9.85-2.4-1.35 5.4-2.6 10.65-3.95 16 .8.2 1.4.45 2.05.6zm17.3-22.65c2.7-.4 4.95-2.2 5.6-4.6.8-3-.1-5.6-2.5-7.35-2.75-2-5.9-3.05-9.15-3.75-1.2-.25-2.4-.95-3.85-.5-1.15 4.75-2.35 9.5-3.55 14.45 4.65 1.1 8.9 2.4 13.45 1.75z" fill="#f39321"/></svg>
